X:1
T:Ne tuoi pietosi
T:Stefano Landi
T:Source : Arie---Sest libro---Venetia---B.Magni---1638. Editor : André Vierendeels (20/08/17).
T:Notes : Original clefs : G2, C4 Editorial accidentals above the staff Note values have been halved
T:Ne tuoi pietosi
T:©
T:©
T:©
C:Stefano Landi
Z:©
%%score 1 2
L:1/8
Q:1/4=120
M:6/4
K:C
V:1 treble nm="Soprano" snm="S"
V:2 bass nm="MusicXML Part"
V:1
 z4 A2 d4 e2 | f4 g2 a2 e3 f | c4 d2 f2 e2 fg | f4 c2 c4 c2 | _B2 A2 Bc d3 c de | f2 e2 a4 f4 | %6
w: Ne tuoi pie-|to- si sguar- di spe-|rai tro- var mer- * *|cè ma fur me|co- bu- giar- * * * * *|* di sen- z'a-|
w: Di te di-|ven- ni'A- man- * *|te men- tre'as- * pet- *|tai che tu l'es-|ser fi da _ e con- * *|stan- te sti- mas-|
w: Par- ve- m'il|duol so- a- ve per|go- der tua bel- * *|tà on- de non|mi fu gra- * * * * *|* ve, per der|
 f4 f4 e2 fg |[M:3/4] d6 ::[M:6/4] z4 d2 e4 d2 | e4 f2 g2 e2 g2- | g2 a2 e4 f2 ^c2 | %11
w: mor sen- za _ _|fè.|Co- si re-|stai tra- di- to dal|_ as- pet- to men-|
w: si per vir- * *|tu.|Et hor chia-|ro si ve- de che|_ con- stan- za me|
w: mia li- ber- * *|tà.|Hor cres- con|le mie do- * glie|_ per- o che à|
 d2 ef g2 e4 a2- | a2 g2 e2 f4 f2 | f3 g fg e4 g2 | a2 g2 a2 f4 c2 | d2 c2 d2 B2 ^c2 d2 | %16
w: ti- * * * to de|_ tuoi ce- le- sti|ra- * * * i, ahi|me, ahi- * me, ahi-|me, ahi- * me che noi|
w: fe- * * * de no|_ co- no- sce- sti|ma- * * * i, ahi-|me, ahi- * me, ahi-|me, ahi- * me che noi|
w: n'e si _ ro- glie, cio|_ ch'ad al- tri tu|da- * * * i, ahi-|me, ahi- * me, ahi-|me, ahi- * me che poi|
 d2 d3 ^c !fermata!d6 :| %17
w: pen- sa- * i.|
w: pen- sa- * i.|
w: pen sa- * i.|
V:2
"^BC" D6 D2 ^C4 | D2 E4 F2 ^C3 D | A,2 _B,6 C4 | F,2 F4 E6 |"^7  6" D4 C2 _B,6 | %5
"^4#3" z2 A,4 F,4 D,2 | G,6 G,2 A,4 |[M:3/4] D,6 ::[M:6/4] D6 C2 B,4 | C2 A,4 E6 | ^C6 D6 | %11
"^#3" _B,6 A,6 | B,2 ^C4 D2 G,4 | A,2 B,4 C2 E4 | F2 E4 D2 A,4 | _B,2 A,4 G,6 | %16
 G,2 A,4 !fermata!D,6 :| %17

